public/icons/tokens/xaut0.svg

<svg width="88" height="88" viewBox="0 0 88 88" fill="none" xmlns="http://www.w3.org/2000/svg">
<circle cx="44" cy="44" r="44" fill="#D09803"/>
<path d="M21.5 21H66.4998V31H49V41H39V31H21.5V21Z" fill="white"/>
<path d="M39 41V61H29V41H39Z" fill="white"/>
<path d="M49.0015 61H59V41H49V61H39.0015V71H49.0015V61Z" fill="white"/>
</svg>

<svg width="88" height="88" viewBox="0 0 88 88" fill="none" xmlns="http://www.w3.org/2000/svg"><circle cx="44" cy="44" r="44" fill="#D09803"/><path d="M21.5 21h45v10H49v10H39V31H21.5V21ZM39 41v20H29V41h10Zm10.002 20H59V41H49v20h-9.998v10h10V61Z" fill="#fff"/></svg>
